X:608
T: MAEDCHEN WENN ICH DICH ERBLICKE
N: E0566
O: Europa, Mitteleuropa, Deutschland, Brandenburg
R: Liebes - Lied
M: 4/4
L: 1/8
K: F
 | F3Ac2c2 | B2G2FEDC |
FFFFA2c2 | G4z4 |
B3Gd2cB | A2A2c2BA |
GGGGB2AG | F4z4

@@@ Tune index: 4258
